components/Common/Svg/svgs/esquire.svg

<svg
  width="211"
  height="53"
  viewBox="0 0 211 53"
  fill="none"
  xmlns="http://www.w3.org/2000/svg"
>
  <g opacity="0.5">
    <path
      fill-rule="evenodd"
      clip-rule="evenodd"
      d="M44.7627 33.6169C42.6784 33.2507 37.2814 33.2507 37.2814 34.9552C37.2814 36.6585 43.1689 36.2935 44.7627 33.6169ZM28.4501 0.998711C26.3659 0.633717 12.8745 -0.461265 5.76107 8.90932C2.32694 13.17 4.78024 18.4028 12.5067 18.4028C5.27065 21.0806 -0.248967 25.9496 1.2235 31.669C3.25921 39.5833 12.1389 39.2147 19.1298 38.4847C31.5662 37.1849 40.1024 25.5846 42.0653 24.1234C45.0078 25.5846 46.4803 28.2612 45.253 29.9657C41.9427 30.0862 33.2341 30.8162 33.602 35.3202C33.9698 39.823 47.7063 39.3363 55.3102 34.3469C56.4148 34.7119 58.6217 35.8068 59.7252 36.6585C60.8298 37.5114 62.0558 36.7802 62.1785 33.129C61.075 32.034 58.0087 30.9391 56.4148 30.9391C56.9053 28.5046 57.7635 25.5846 50.8952 20.5939C49.7918 19.9856 49.9144 19.2544 50.7726 18.6461C51.6308 18.0378 50.65 16.5778 48.3193 15.8466C45.9886 15.1166 40.9606 15.4828 39.3668 17.3078C38.6312 18.0378 38.6312 20.5939 39.8572 21.4456C38.6312 23.5151 32.4985 32.399 23.4222 33.129C20.1106 33.4952 16.3864 33.0134 16.6765 28.2612C16.9217 24.2451 23.0543 20.7156 25.2624 19.7423C26.6111 19.134 26.3659 17.1861 24.6482 16.6995C22.9317 16.2128 18.8846 15.9695 18.6394 12.805C18.3942 9.64051 22.4413 7.32768 28.9418 6.11103C30.9034 5.86771 30.9034 1.60703 28.4501 0.998711V0.998711Z"
      fill="#171717"
    ></path>
    <path
      fill-rule="evenodd"
      clip-rule="evenodd"
      d="M80.6968 22.0539C78.7351 21.8106 72.4798 21.0806 71.6216 27.0434C70.7634 33.0074 75.6688 33.4952 77.6316 33.2507C79.5933 33.0074 83.6405 30.9391 83.6405 23.7585C83.5179 20.1073 84.9891 18.7678 88.178 18.6461C91.3682 18.5245 92.8394 19.2545 92.8394 22.5406C92.8394 25.828 92.962 50.5331 92.962 51.6293C90.6313 51.6293 84.4987 51.8726 82.0466 52.2376C82.2918 46.3953 83.0274 34.5902 83.0274 32.764C81.4324 35.0769 78.3673 38.4847 72.6024 38.363C66.8388 38.2414 61.5644 35.5635 61.9322 28.0179C62.3 20.4723 70.0265 15.2383 81.924 16.9428C84.0083 17.3078 84.2535 22.4189 80.6968 22.0539"
      fill="#171717"
    ></path>
    <path
      fill-rule="evenodd"
      clip-rule="evenodd"
      d="M208.373 33.495C205.553 33.3722 203.59 33.8588 201.383 34.225C199.175 34.59 195.741 34.955 193.165 34.3467C190.589 33.7372 189.853 31.1822 190.589 29.5993C191.326 28.0177 193.778 27.1649 195.25 26.6794C196.722 26.1927 196.722 24.2449 195.128 23.8799C193.533 23.5149 191.326 22.9054 191.326 21.5671C191.326 20.2288 193.288 18.4026 199.42 18.8905C201.751 19.1338 201.137 15.1164 198.562 14.5081C196.231 14.3865 188.137 15.1164 182.617 17.9159C179.796 19.3759 179.306 23.3932 186.787 24.7316C182.127 25.0966 178.938 29.1127 179.061 30.9389C179.096 31.458 179.002 32.382 179.316 33.3975C178.106 34.1744 176.613 34.4286 174.952 34.3467C172.499 34.225 168.82 31.3039 169.618 26.3132C170.323 21.8935 171.579 22.4187 172.192 22.1754C173.542 22.1754 174.891 21.4454 174.891 19.7421C174.891 18.0376 175.321 17.6124 173.971 17.6124C172.622 17.6124 164.221 18.829 157.965 17.4293C157.843 15.6043 154.776 13.0481 151.588 14.7514C148.4 16.456 149.258 20.3504 152.937 21.3237C153.224 21.3996 153.518 21.4719 153.809 21.5442C152.682 26.147 150.091 33.8323 145.947 34.59C143.616 35.0767 142.143 33.495 142.39 29.7222C142.635 25.9494 143.371 18.8905 143.371 18.8905C143.616 15.8464 132.455 15.9693 132.578 19.7421V31.6689C132.578 31.9531 132.639 32.3109 132.749 32.7036C129.924 34.8851 123.692 35.385 124.116 30.4522L125.587 19.6204C125.955 16.456 115.775 15.361 115.53 19.7421L115.407 28.5044C115.367 29.0031 115.351 29.609 115.39 30.2691C114.579 31.7676 113.049 33.1674 111.115 33.2505C108.294 33.3722 106.699 33.0072 106.944 29.4777C107.19 25.9494 108.048 19.2542 108.048 19.2542C108.294 16.091 98.1139 16.091 97.8687 18.8905C97.7461 21.2021 97.1331 29.7222 97.0104 32.3988C96.8878 35.0767 101.058 38.3628 106.944 38.1195C112.136 37.9051 113.989 36.4583 116.121 33.6167C117.16 36.1138 119.516 38.3291 124.606 38.1195C126.542 38.0063 129.434 38.6254 133.964 35.1032C135.173 36.7234 137.221 38.2267 140.304 38.3628C145.824 38.6061 149.994 38.1195 152.937 32.3988C155.494 27.4299 156.293 25.3989 156.941 22.238C159.452 22.7187 162.045 23.0271 164.588 23.0271C161.645 25.0966 160.419 26.7999 160.664 30.3305C160.787 32.5205 162.258 38.1604 171.702 38.2412C177.037 38.2857 179.49 37.1534 181.179 35.8946C183.444 37.5292 188.154 38.7001 197.949 37.8762C201.137 37.3883 205.921 37.5112 208.987 37.6328C211.071 37.7545 211.194 33.6167 208.373 33.495"
      fill="#171717"
    ></path>
    <path
      fill-rule="evenodd"
      clip-rule="evenodd"
      d="M138.219 13.5574C141.284 13.5574 143.769 11.4758 143.769 8.90884C143.769 6.34304 141.284 4.2627 138.219 4.2627C135.153 4.2627 132.668 6.34304 132.668 8.90884C132.668 11.4758 135.153 13.5574 138.219 13.5574"
      fill="#171717"
    ></path>
  </g>
</svg>

<svg width="211" height="53" viewBox="0 0 211 53" fill="none" xmlns="http://www.w3.org/2000/svg"><g opacity=".5" fill-rule="evenodd" clip-rule="evenodd" fill="#171717"><path d="M44.763 33.617c-2.085-.366-7.482-.366-7.482 1.338 0 1.703 5.888 1.339 7.482-1.338ZM28.45.999C26.366.634 12.875-.461 5.761 8.909c-3.434 4.261-.98 9.494 6.746 9.494C5.27 21.08-.25 25.95 1.223 31.669c2.036 7.914 10.916 7.546 17.907 6.816 12.436-1.3 20.972-12.9 22.935-14.362 2.943 1.462 4.415 4.138 3.188 5.843-3.31.12-12.019.85-11.651 5.354.368 4.503 14.104 4.016 21.708-.973 1.105.365 3.312 1.46 4.415 2.311 1.105.853 2.33.122 2.453-3.529-1.103-1.095-4.17-2.19-5.763-2.19.49-2.434 1.349-5.354-5.52-10.345-1.103-.608-.98-1.34-.122-1.948.858-.608-.123-2.068-2.454-2.8-2.33-.73-7.358-.363-8.952 1.462-.736.73-.736 3.286.49 4.138-1.226 2.07-7.358 10.953-16.435 11.683-3.311.366-7.036-.116-6.745-4.868.245-4.016 6.377-7.545 8.585-8.519 1.35-.608 1.104-2.556-.614-3.043-1.716-.486-5.763-.73-6.009-3.894-.245-3.164 3.802-5.477 10.303-6.694 1.961-.243 1.961-4.504-.492-5.112ZM80.697 22.054c-1.962-.243-8.217-.973-9.075 4.99-.859 5.963 4.047 6.451 6.01 6.207 1.961-.244 6.008-2.312 6.008-9.492-.122-3.652 1.35-4.991 4.538-5.113 3.19-.122 4.661.608 4.661 3.895s.123 27.992.123 29.088c-2.33 0-8.463.244-10.915.609.245-5.843.98-17.648.98-19.474-1.595 2.313-4.66 5.72-10.425 5.599-5.763-.122-11.038-2.8-10.67-10.345.368-7.546 8.094-12.78 19.992-11.075 2.084.365 2.33 5.476-1.227 5.11M208.373 33.495c-2.82-.123-4.783.364-6.99.73-2.208.365-5.642.73-8.218.122-2.576-.61-3.312-3.165-2.576-4.748.737-1.581 3.189-2.434 4.661-2.92 1.472-.486 1.472-2.434-.122-2.8-1.595-.364-3.802-.974-3.802-2.312 0-1.338 1.962-3.164 8.094-2.677 2.331.244 1.717-3.774-.858-4.382-2.331-.121-10.425.608-15.945 3.408-2.821 1.46-3.311 5.477 4.17 6.816-4.66.365-7.849 4.38-7.726 6.207.035.519-.059 1.443.255 2.459-1.21.776-2.703 1.03-4.364.949-2.453-.122-6.132-3.043-5.334-8.034.705-4.42 1.961-3.894 2.574-4.138 1.35 0 2.699-.73 2.699-2.433 0-1.704.43-2.13-.92-2.13-1.349 0-9.75 1.217-16.006-.183-.122-1.825-3.189-4.38-6.377-2.678-3.188 1.705-2.33 5.6 1.349 6.573.287.076.581.148.872.22-1.127 4.603-3.718 12.288-7.862 13.046-2.331.487-3.804-1.095-3.557-4.868.245-3.773.981-10.832.981-10.832.245-3.044-10.916-2.92-10.793.852V31.67c0 .284.061.642.171 1.035-2.825 2.181-9.057 2.681-8.633-2.252l1.471-10.832c.368-3.164-9.812-4.259-10.057.122l-.123 8.762c-.04.5-.056 1.105-.017 1.765-.811 1.499-2.341 2.898-4.275 2.982-2.821.121-4.416-.244-4.171-3.773.246-3.529 1.104-10.224 1.104-10.224.246-3.163-9.934-3.163-10.18-.364-.122 2.312-.735 10.832-.858 13.509-.122 2.678 4.048 5.964 9.934 5.72 5.192-.214 7.045-1.66 9.177-4.502 1.039 2.497 3.395 4.712 8.485 4.503 1.936-.114 4.828.505 9.358-3.017 1.209 1.62 3.257 3.124 6.34 3.26 5.52.243 9.69-.243 12.633-5.964 2.557-4.97 3.356-7 4.004-10.161 2.511.48 5.104.79 7.647.79-2.943 2.069-4.169 3.772-3.924 7.303.123 2.19 1.594 7.83 11.038 7.91 5.335.045 7.788-1.088 9.477-2.346 2.265 1.634 6.975 2.805 16.77 1.981 3.188-.488 7.972-.365 11.038-.243 2.084.121 2.207-4.016-.614-4.138M138.219 13.557c3.065 0 5.55-2.081 5.55-4.648 0-2.566-2.485-4.646-5.55-4.646-3.066 0-5.551 2.08-5.551 4.646 0 2.567 2.485 4.648 5.551 4.648"/></g></svg>
